svg/regular/bx-window-open.svg

<svg xmlns="http://www.w3.org/2000/svg" width="24" height="24"><path d="M20 3H4c-1.103 0-2 .897-2 2v14c0 1.103.897 2 2 2h5v-2H4V7h16v12h-5v2h5c1.103 0 2-.897 2-2V5c0-1.103-.897-2-2-2z"/><path d="M13 21v-5h3l-4-5-4 5h3v5z"/></svg>

<svg xmlns="http://www.w3.org/2000/svg" width="24" height="24" viewBox="0 0 24 24"><path d="M20,3H4C2.897,3,2,3.897,2,5v14c0,1.103,0.897,2,2,2h5v-2H4V7h16v12h-5v2h5c1.103,0,2-0.897,2-2V5C22,3.897,21.103,3,20,3z"/><path d="M13 21L13 16 16 16 12 11 8 16 11 16 11 21z"/></svg>
